X:18249
T:Var det du eller var det jag (L\aa{}ngdans)
R:Longdans
R:Polska
O:Sweden
M:3/4
A:Dalarna
K:Am
AB|\
c2cdBc|A2ABcd|e2g2^f2 |e4::\
e2|\
e2c2ec|c2eceg|
^f2d2fd|d2^fdfg|\
e^f ed cB|A2c2cc|B2G2G2|A4:|
